mockup/templates/main/build/images/GROHE QuickFix.svg

<svg xmlns="http://www.w3.org/2000/svg" width="48" height="48" viewBox="0 0 48 48">
  <g fill="none" fill-rule="evenodd">
    <rect width="48" height="48" fill="#132D52" rx="8"/>
    <path fill="#FEFEFE" d="M31.665488,19.5955262 C31.494288,19.3603262 30.924688,18.6931262 30.172688,19.4723262 L19.395088,30.2483262 C18.931088,30.8787262 19.097488,31.3475262 19.396688,31.5539262 C22.803088,33.5491262 27.249488,33.0963262 30.171088,30.1747262 C33.036688,27.3075262 33.531088,22.9747262 31.665488,19.5955262 M28.140688,16.0851262 C24.767888,14.2435262 20.452688,14.7443262 17.596688,17.6003262 C14.671888,20.5251262 14.222288,24.9779262 16.225488,28.3875262 C16.422288,28.6739262 16.964688,28.8371262 17.651088,28.2499262 L28.255888,17.6467262 C29.132688,16.7619262 28.342288,16.2227262 28.140688,16.0851262"/>
    <path fill="#FEFEFE" d="M27.7883641 37.8561123C27.4523641 37.7937123 26.9563641 38.2337123 24.2539641 38.4577123 16.4667641 38.9553123 10.2283641 33.2897123 9.7499641 25.6769123 9.7211641 25.2369123 9.7163641 25.1121123 9.7307641 24.6849123 9.7307641 24.6849123 9.7387641 24.2753123 10.0923641 24.2769123 10.6891641 24.2769123 11.0219641 24.2849123 11.0219641 24.2849123 11.2555641 24.2849123 11.4667641 24.2913123 11.5723641 24.1041123 11.6443641 23.9761123 11.6427641 23.8577123 11.5643641 23.6929123L8.8459641 18.2177123 8.7131641 18.0977123C8.4859641 17.9681123 8.2043641 18.0417123 8.0603641 18.2513123L8.0587641 18.2561123 5.1195641 23.6113123C4.9851641 23.8465123 4.8763641 24.1585123 5.3035641 24.2833123 5.3547641 24.3073123 5.7019641 24.2849123 6.3771641 24.2849123 6.5835641 24.2849123 6.8443641 24.3249123 6.8443641 24.6577123 6.8443641 24.8097123 6.8571641 24.8833123 6.8667641 25.0353123 7.3051641 31.9953123 12.2219641 37.5985123 18.6315641 39.2353123 22.4331641 40.0305123 24.9803641 39.2465123 26.4059641 38.8401123 27.5723641 38.4785123 28.1963641 37.9313123 27.7883641 37.8561123M19.4624441 9.72171229C19.7984441 9.78571229 20.2944441 9.34571229 22.9968441 9.12011229 30.7840441 8.62411229 37.0224441 14.2881123 37.5024441 21.9009123 37.5296441 22.3409123 37.5344441 22.4657123 37.5200441 22.8929123 37.5200441 22.8929123 37.5120441 23.3009123 37.1600441 23.3009123 36.5616441 23.3009123 36.2288441 23.2929123 36.2288441 23.2929123 35.9952441 23.2929123 35.7840441 23.2865123 35.6784441 23.4737123 35.6064441 23.6001123 35.6096441 23.7201123 35.6864441 23.8849123L38.4048441 29.3601123 38.5376441 29.4817123C38.7648441 29.6097123 39.0464441 29.5361123 39.1904441 29.3281123L39.1920441 29.3233123 42.1328441 23.9665123C42.2656441 23.7313123 42.3744441 23.4177123 41.9472441 23.2929123 41.8960441 23.2689123 41.5488441 23.2929123 40.8752441 23.2929123 40.6688441 23.2929123 40.4064441 23.2529123 40.4064441 22.9201123 40.4064441 22.7681123 40.3936441 22.6945123 40.3840441 22.5409123 39.9456441 15.5825123 35.0288441 9.97931229 28.6192441 8.34251229 24.8176441 7.54731229 22.2720441 8.33131229 20.8464441 8.73931229 19.6784441 9.09931229 19.0544441 9.64651229 19.4624441 9.72171229"/>
  </g>
</svg>

<svg xmlns="http://www.w3.org/2000/svg" width="48" height="48"><g fill="none" fill-rule="evenodd"><rect width="48" height="48" fill="#132D52" rx="8"/><path fill="#FEFEFE" d="M31.665 19.596c-.17-.236-.74-.903-1.492-.124L19.395 30.248c-.464.63-.298 1.1.002 1.306 3.406 1.995 7.852 1.542 10.774-1.38 2.866-2.866 3.36-7.2 1.494-10.578m-3.524-3.51c-3.373-1.842-7.688-1.342-10.544 1.514-2.925 2.925-3.375 7.378-1.372 10.788.197.286.74.45 1.426-.138l10.605-10.603c.877-.885.086-1.424-.115-1.562"/><path fill="#FEFEFE" d="M27.788 37.856c-.336-.062-.832.378-3.534.602-7.787.497-14.026-5.168-14.504-12.781a7.648 7.648 0 0 1-.02-.992s.009-.41.362-.408c.597 0 .93.008.93.008.234 0 .445.006.55-.18.072-.129.07-.247-.008-.412l-2.718-5.475-.133-.12a.495.495 0 0 0-.653.153l-.001.005-2.94 5.355c-.134.236-.243.548.185.672.05.024.398.002 1.073.002.207 0 .467.04.467.373 0 .152.013.225.023.377.438 6.96 5.355 12.564 11.765 14.2 3.801.796 6.348.012 7.774-.395 1.166-.361 1.79-.909 1.382-.984M19.462 9.722c.336.064.832-.376 3.535-.602 7.787-.496 14.025 5.168 14.505 12.78.028.44.032.566.018.993 0 0-.008.408-.36.408-.598 0-.931-.008-.931-.008-.234 0-.445-.006-.55.18-.073.127-.07.247.007.412l2.719 5.475.133.122a.498.498 0 0 0 .652-.154l.002-.005 2.94-5.356c.134-.236.242-.55-.185-.674-.051-.024-.398 0-1.072 0-.206 0-.469-.04-.469-.373 0-.152-.012-.225-.022-.38-.438-6.957-5.355-12.56-11.765-14.197-3.801-.796-6.347-.012-7.773.396-1.168.36-1.792.908-1.384.983"/></g></svg>
